X:277
T: Vater unser
N: A0630B
O: Europa, Mitteleuropa, Deutschland
N: Babsts Gsgb 1545 II No. 26
R: Romanze, Ballade, Lied
M: 3/2
L: 1/2
K: D
A | A2=F | G2A | =F2E | D2
A | A2G | =c2A | =F2G | A2
A | c2d | =f2e | d2c | d2
d | eed | =c2_B | A2G | A2
d | =c2B | =c2A | A2G | =F2
A | _B2A | =F2G | =F2E | D2

@@@ Tune index: 590
